client/public/game_modes/arrow.svg

<svg width="31" height="31" viewBox="0 0 31 31" fill="none" xmlns="http://www.w3.org/2000/svg">
<path d="M31 0H0V8H3.94915V16H7.88136V24H12.5V31H18.5V24H23.1186V16H27.0508V8H31V0Z" fill="white"/>
</svg>

<svg xmlns="http://www.w3.org/2000/svg" width="31" height="31" fill="none"><path fill="#fff" d="M31 0H0v8h3.95v8h3.93v8h4.62v7h6v-7h4.619v-8h3.932V8H31V0Z"/></svg>
